!!!!SEGMENT: s-uu--vok-mus-i-hs-22-20_forster-kaspar--vulnerasti-cor-meum.krn
!!!cenid: 16xx:1696
!!!COM: Förster, Kaspar
!!!COM-rismID: pe30006147
!!!CDT: ~1616-1673/02/02
!!!CNT: German
!!!OTL: Vulnerasti cor meum
!!!PDT:
!!!AGN:
!!!SMS-siglum: S-Uu
!!!SMS-shelfmark: Vok. mus. i hs. 22:20
!!!SMS-shelfwork: W
!!!SMS-variant:
!!!SMS-altvar:
!!!NIFC-rismSourceID: 190008743
!!!NIFC-rismChildID: 190008743
!!!NIFC-islandoraID: none
!!!URL-pdf-islandora:
!!!URL-scan: https://www2.musik.uu.se/duben/presentationSource1.php?Select_Dnr=867 @EN{Scan on Academica} @PL{Skany w zewnętrznej bibliotece cyfrowej}
!!!ONB-nifc: UWAGA: poszczególne partie dostępne po kliknięciu w „browse part”. Informacje nt stron tytułowych w opisie na stronie lub na RISM.
!!!AIN: 1 bass 1 organ 2 soprn
!!!key:
**kern	**fba	**kern	**text	**kern	**text	**kern	**text
*part4	*part4	*part3	*part3	*part2	*part2	*part1	*part1
*staff4	*staff4	*staff3	*staff3	*staff2	*staff2	*staff1	*staff1
*I"Basso Continuo	*	*I"Basso	*	*I"Canto 2.	*	*I"Canto Primo	*
*I'B.c.	*	*I'B.	*	*I'C	*	*I'C. P.	*
*Iorgan	*	*Ibass	*	*Isoprn	*	*Isoprn	*
*ICklav	*	*ICvox	*	*ICvox	*	*ICvox	*
*IGcont	*	*	*	*	*	*	*
*clefF4	*	*clefF4	*	*clefC1	*	*clefC1	*
*k[b-]	*	*k[b-]	*	*k[b-]	*	*k[b-]	*
*c:	*	*c:	*	*c:	*	*c:	*
*M2/1	*	*M2/1	*	*M2/1	*	*M2/1	*
*met(C|)	*	*met(C|)	*	*met(C|)	*	*met(C|)	*
=1-	=1-	=1-	=1-	=1-	=1-	=1-	=1-
2.GG/	.	1r	.	1r	.	4r	.
.	.	.	.	.	.	8.dd\	Vul-
.	.	.	.	.	.	16dd\	-ne-
.	.	.	.	.	.	4b-\	-ra-
4AA/	6\	.	.	.	.	8.f#X/	-sti
!	!	!	!	!	!	!LO:TX:t=P:problem:kreska pseudotaktowa	!
.	.	.	.	.	.	16f#/	cor
2GG/	.	4r	.	2r	.	(8g\L	me-
.	.	.	.	.	.	8a\J)	.
.	.	8.G\	Vul-	.	.	8b-\	-um
.	.	.	.	.	.	8b-\	cor
.	.	16G\	-ne-	.	.	.	.
!LO:TX:a:t=P:problem:♭ above	!	!	!	!	!	!	!
4C-/	.	4E-X\	-ra-	4r	.	4cc\	me-
!LO:TX:t=P:problem:kreska pseudotaktowa	!	!	!	!	!	!	!
!LO:N:acc=#	!	!	!	!	!	!	!
4BBn/	6	8.BB#X/	-sti	8.g/	Vul-	(8dd\L	.
!	!	!	!	!	!	!LO:TX:t=P:problem:kreska pseudotaktowa	!
.	.	.	.	.	.	8cc\J)	.
!	!	!LO:TX:t=P:problem:kreska pseudotaktowa	!	!LO:TX:t=P:problem:kreska pseudotaktowa	!	!	!
.	.	16BBny/	cor	16g/	-ne-	.	.
=2-	=2-	=2-	=2-	=2-	=2-	=2-	=2-
!LO:TX:a:t=P:problem:♭ above	!	!	!	!	!	!	!
4C-/	.	4C/	me-	4e-X/	-ra-	4cc\	-um
!	!	!	!	!LO:N:acc=#	!	!	!
4D/	6	8.D/	-um	8.Bn/	-sti	8.ff\	vul-
.	.	16D/	cor	16B/	cor	16ff\	-me-
!LO:TX:a:t=P:problem:♭ above	!	!	!	!	!	!	!
2C-/	.	4C/	me-	8c/	me-	8ee-X\	-ra-
.	.	.	.	8c/	-um	8ee-\	-sti
!	!	!LO:TX:t=P:problem:kreska pseudotaktowa	!	!	!	!	!
.	.	4C/	-um	8cc\	ſor-	8ee-\	ſo-
!	!	!	!	!LO:TX:t=P:problem:kreska pseudotaktowa	!	!LO:TX:t=P:problem:kreska pseudotaktowa	!
.	.	.	.	8b-\	-or	8dd\	-ror
4F\	.	4r	.	8a\	me-	8cc\	me-
.	.	.	.	8a\	-a	8cc\	-a
4D\	.	8D/	ſor-	8f/	ſor-	8ff\	ſo-
.	.	8D/	-or	8f/	-or	8ff\	-ror
!	!	!	!	!	!	!LO:LB:g=original	!
!LO:TX:t=P:problem:kreska pseudotaktowa	!	!	!	!	!	!	!
2E-X\	.	4.E-X\	me-	(8g\L	me-	4.ee-X\	me-
.	.	.	.	8a\J)	.	.	.
!	!	!	!	!LO:TX:t=P:problem:kreska pseudotaktowa	!	!	!
.	.	.	.	4b-\	-a	.	.
!	!	!LO:TX:t=P:problem:kreska pseudotaktowa	!	!	!	!	!
.	.	8E-\	-a	.	.	8dd\	-a
=3-	=3-	=3-	=3-	=3-	=3-	=3-	=3-
2F\	.	2F\	ſpon-	(4.b-\	ſpon-	2cc\	ſpon-
!	!	!	!	!LO:SIC:v:t=custos b	!	!	!
.	.	.	.	8a\)	.	.	.
!	!	!	!	!LO:LB:g=original	!	!	!
4BB/	.	4BB/	-sa,	4b-\	-sa,	4dd\	-sa
!	!	!	!	!	!	!LO:TX:t=P:problem:kreska pseudotaktowa	!
4B-\	.	8B-\	vul-	8dd\	vul	4r	.
!	!	!LO:TX:t=P:problem:kreska pseudotaktowa	!	!	!	!	!
!	!	!LO:SIC:v:t=custos g	!	!LO:TX:t=P:problem:kreska pseudotaktowa	!	!	!
.	.	8B-\	-ne-	8dd\	ne	.	.
!	!	!LO:LB:g=original	!	!	!	!	!
4G\	.	4G\	-ra-	4b-\	ra	2r	.
!LO:TX:a:t=P:problem:# above	!	!	!	!	!	!	!
4D#X/	.	8D/	-sti	8.f#X/	sti	.	.
.	.	8D/	cor-	.	.	.	.
.	.	.	.	16f#/	cor	.	.
!LO:TX:t=P:problem:kreska pseudotaktowa	!	!	!	!	!	!	!
2E-X\	.	8E-X\	-me-	4g/	me-	4r	.
.	.	8E-\	-um	.	.	.	.
!	!	!	!	!LO:TX:t=P:problem:kreska pseudotaktowa	!	!	!
.	.	8.E-\	vul-	2g/	-um	8.gg\	Vul-
!	!	!LO:TX:t=P:problem:kreska pseudotaktowa	!	!	!	!LO:TX:t=P:problem:kreska pseudotaktowa	!
.	.	16E-\	-ne-	.	.	16gg\	-ne-
=4-	=4-	=4-	=4-	=4-	=4-	=4-	=4-
4Cny/	.	4C/	-ra-	.	.	4ee-X\	-ra-
!	!	!	!	!	!	!LO:N:acc=#	!
4Dny/	.	8.D/	-sti	8fny/	vul-	8.bn\	-sti
.	.	.	.	8f/	-ne-	.	.
.	.	16D/	cor	.	.	16b\	cor
2C/	6	8C/	me-	8e-X/	-ra-	8cc\	me-
.	.	8C/	-um	8c/	-sti	8cc\	-um
!	!	!	!	!	!	!LO:TX:t=P:problem:kreska pseudotaktowa	!
.	.	8C/	ſor-	8cc\	ſor-	4r	.
!	!	!LO:TX:t=P:problem:kreska pseudotaktowa	!	!LO:TX:t=P:problem:kreska pseudotaktowa	!	!	!
.	.	8C/	-or	8b-\	-or	.	.
2F\	.	8F\	me-	8a\	me-	4r	.
.	.	8F\	-a	8a\	-a	.	.
.	.	8FF/	ſpon-	4r	.	8ff\	ſo-
.	.	8FF/	-sa	.	.	8ee-X\	-ror
!LO:TX:t=P:problem:kreska pseudotaktowa	!	!	!	!	!	!	!
!LO:SIC:v:t=custos c	!	!	!	!	!	!	!
2BB/	.	8BB/	me-	4r	.	8dd\	me-
!LO:LB:g=original	!	!	!	!	!	!	!
.	.	8BB/	-a	.	.	8dd\	-a
.	.	8BB/	ſor-	8d/	ſor-	8dd\	ſo-
!	!	!LO:TX:t=P:problem:kreska pseudotaktowa	!	!LO:TX:t=P:problem:kreska pseudotaktowa	!	!LO:TX:t=P:problem:kreska pseudotaktowa	!
!	!	!LO:SIC:v:t=custos c	!	!LO:SIC:v:t=custos e	!	!LO:SIC:v:t=custos cc	!
.	.	8BB/	-or	8d/	-or	8dd\	-ror
!	!	!	!	!	!	!LO:LB:g=original	!
!	!	!LO:LB:g=original	!	!LO:LB:g=original	!	!	!
=5-	=5-	=5-	=5-	=5-	=5-	=5-	=5-
2C/	.	4.C/	me-	8eny/L	me-	4.cc\	me-
!	!	!	!	!LO:TX:t=P:problem:# below	!	!	!
!	!	!	!	!LO:TX:b:t=P:problem:# below	!	!	!
.	.	.	.	8f#X/J	.	.	.
.	.	.	.	4g/	-a	.	.
.	.	8C/	-a	.	.	8b-\	-a
!	!	!LO:TX:t=P:problem:kreska pseudotaktowa	!	!	!	!LO:TX:t=P:problem:kreska pseudotaktowa	!
2D/	.	2D/	ſpon-	(4.g/	ſpon-	2a\	ſpon-
!	!	!	!	!LO:TX:t=P:problem:kreska pseudotaktowa	!	!	!
.	.	.	.	8f#X/)	.	.	.
2GG/	.	4GG/	-sa,	4g/	-sa,	4b-\	-sa,
.	.	4r	.	8g/	ſor-	8b-\	ſo-
.	.	.	.	8f#/	-or	8a\	-ror
4.C/	.	4r	.	8e/	me-	8g/	me-
.	.	.	.	8e/	-a	8g/	-a
!	!	!	!	!LO:TX:t=P:problem:kreska pseudotaktowa	!	!LO:TX:t=P:problem:kreska pseudotaktowa	!
.	.	8C/	ſor-	4r	.	4r	.
!LO:TX:t=P:problem:kreska pseudotaktowa	!	!LO:TX:t=P:problem:kreska pseudotaktowa	!	!	!	!	!
8BB-/	.	8BB/	-or	.	.	.	.
=6-	=6-	=6-	=6-	=6-	=6-	=6-	=6-
4AA/	6	8AA/	me-	8fny/	ſor-	8a\	ſo-
.	.	8AA/	-a	8e/	-or	8g/	-ror
*	*	*	*ij	*	*	*	*
4BB-/	.	8BB/	ſor-	8d/	me-	8fny/	me-
.	.	8AA/	-or	8d/	-a	8f/	-a
4GG/	.	8GG/	me-	8e/	ſpon-	8g/	ſpon-
.	.	8GG/	-a	8d/	-sa	8f/	-sa
!	!	!LO:TX:t=P:problem:kreska pseudotaktowa	!	!	!	!LO:TX:t=P:problem:kreska pseudotaktowa	!
*	*	*	*Xij	*	*	*	*
4AA/	.	4AA/	ſpon-	(8.d/	me-	4e/	me-
!	!	!	!	!LO:TX:t=P:problem:kreska pseudotaktowa	!	!	!
.	.	.	.	16c#X/)	.	.	.
!LO:TX:a:t=P:problem:♭ above	!	!	!	!	!	!	!
2D-/	.	4D/	-sa,	4d/	-a	4f/	-a
.	.	4r	.	8dd\	ſor-	8ff\	ſo-
!	!	!	!	!LO:SIC:v:t=custos dd	!	!	!
.	.	.	.	8cc\	-or	8ee-X\	-ror
!	!	!	!	!LO:LB:g=original	!	!	!
4G\	.	8G\	ſor-	8b-\	me-	8dd\	me-
.	.	8F\	-or	8b-\	-a	8dd\	-a
!LO:TX:t=P:problem:kreska pseudotaktowa	!	!	!	!	!	!	!
4E-X\	6	8E-X\	me-	8cc\	ſpon-	8ee-X\	ſpon-
!	!	!LO:TX:t=P:problem:kreska pseudotaktowa	!	!LO:TX:t=P:problem:kreska pseudotaktowa	!	!LO:TX:t=P:problem:kreska pseudotaktowa	!
.	.	8E-\	-a	8b-\	-sa	8dd\	-sa
!	!	!	!	!	!	!LO:LB:g=original	!
=7-	=7-	=7-	=7-	=7-	=7-	=7-	=7-
4F\	.	8F\	ſpon-	8a\	me-	8cc\	me-
.	.	8E-X\	-sa	8a\	-a	8cc\	-a
4Dny/	.	8D/	me-	8b-\	ſor-	8dd\	ſor-
!	!	!LO:SIC:v:t=custos e	!	!	!	!	!
.	.	8D/	-a	8a\	-or	8cc\	-or
!	!	!LO:LB:g=original	!	!	!	!	!
4E-X\	.	8E-X\	ſor-	8g/	me-	8b-\	me-
.	.	8D/	-or	8g/	-a	8b-\	-a
4C/	.	8C/	me-	8a\	ſpon-	8cc\	ſpon-
!	!	!LO:TX:t=P:problem:kreska pseudotaktowa	!	!LO:TX:t=P:problem:kreska pseudotaktowa	!	!LO:TX:t=P:problem:kreska pseudotaktowa	!
.	.	8C/	-a	8g/	-sa	8b-\	-sa
!LO:TX:a:t=P:problem:# above	!	!	!	!	!	!	!
2D#X/	5 4	8D/L	ſpon-	(4.g/	me-	2a\	me-
.	.	8C/	.	.	.	.	.
.	.	8D/	.	.	.	.	.
.	.	8DD/J	.	8f#X/)	.	.	.
!LO:TX:t=P:problem:kreska pseudotaktowa	!	!	!	!	!	!	!
!LO:TX:a:t=P:problem:♭ above	!	!	!	!	!	!	!
2GG-/	.	4GG/	-sa,	4g/	-a	4g/	-a,
.	.	8G\	ſor-	8g/	ſor-	8b-\	ſor-
!	!	!LO:TX:t=P:problem:kreska pseudotaktowa	!	!LO:TX:t=P:problem:kreska pseudotaktowa	!	!LO:TX:t=P:problem:kreska pseudotaktowa	!
.	.	8G\	-or	8g/	-or	8b-\	-or
=8-	=8-	=8-	=8-	=8-	=8-	=8-	=8-
!LO:TX:a:t=P:problem:# above	!	!	!	!	!	!	!
1AA#X#X	6	4.A\	me-	4g/	me-	4c#X/	me-
!	!	!	!	!LO:SIC:v:t=custos e	!	!	!
.	.	.	.	4fny/	-a	4d/	-a
!	!	!	!	!LO:LB:g=original	!	!	!
.	.	8A\	-a	.	.	.	.
!	!	!LO:TX:t=P:problem:kreska pseudotaktowa	!	!	!	!	!
.	.	2AA/	ſpon-	2e/	ſpon-	(4.d/	ſpon-
!	!	!	!	!	!	!LO:TX:t=P:problem:kreska pseudotaktowa	!
!	!	!	!	!	!	!LO:TX:t=P:problem:# below	!
.	.	.	.	.	.	8c#X/)	.
!LO:TX:a:t=P:problem:♭ above	!	!	!	!	!	!	!
2D-/	.	4D/	-sa,	4f/	-sa,	4d/	-sa,
.	.	4r	.	4r	.	8.dd\	Vul-
!	!	!	!	!	!	!LO:SIC:v:t=custos b	!
.	.	.	.	.	.	16dd\	-ne-
!	!	!	!	!	!	!LO:LB:g=original	!
!	!	!	!	!LO:TX:t=P:problem:kreska pseudotaktowa	!	!	!
4G\	.	2r	.	2r	.	4b-\	-ra-
!LO:TX:t=P:problem:kreska pseudotaktowa	!	!	!	!	!	!	!
!LO:SIC:v:t=custos g	!	!	!	!	!	!	!
4A\	6\	.	.	.	.	8.f#X/	-sti
!LO:LB:g=original	!	!	!	!	!	!LO:TX:t=P:problem:kreska pseudotaktowa	!
.	.	.	.	.	.	16f#/	cor
=9-	=9-	=9-	=9-	=9-	=9-	=9-	=9-
2G\	.	4r	.	2r	.	(8g\L	me-
.	.	.	.	.	.	8a\J)	.
.	.	8.G\	vul-	.	.	8b-\	-um
.	.	.	.	.	.	8b-\	cor
.	.	16G\	-ne-	.	.	.	.
4E-X\	.	4E-X\	-ra-	4r	.	(4cc\	me-
!LO:N:acc=#	!	!LO:N:acc=#	!	!	!	!	!
4BBn/	6	8.BBn/	-sti	8.g/	vul-	8dd\L	.
!	!	!	!	!	!	!LO:TX:t=P:problem:kreska pseudotaktowa	!
.	.	.	.	.	.	8cc\J)	.
!	!	!LO:TX:t=P:problem:kreska pseudotaktowa	!	!	!	!	!
.	.	16BB/	cor-	16g/	-ne-	.	.
4C/	.	4C/	-me-	4e-X/	-ra-	4cc\	-um
!	!	!	!	!LO:N:acc=#	!	!	!
4Dny/	6\	8D/	-um	8.Bn/	-sti	8.ff\	vul-
!	!	!LO:SIC:v:t=custos c	!	!	!	!	!
.	.	8D/	cor	.	.	.	.
!	!	!LO:LB:g=original	!	!	!	!	!
.	.	.	.	16B/	cor	16ff\	-ne-
!LO:TX:t=P:problem:kreska pseudotaktowa	!	!	!	!	!	!	!
2C/	.	4C/	me-	8cny/	me-	8ee-X\	-ra-
.	.	.	.	8c/	-um	8ee-\	-sti
!	!	!LO:TX:t=P:problem:kreska pseudotaktowa	!	!	!	!	!
.	.	4C/	-um	8cc\	ſor-	8ee-\	ſor-
!	!	!	!	!LO:TX:t=P:problem:kreska pseudotaktowa	!	!LO:TX:t=P:problem:kreska pseudotaktowa	!
.	.	.	.	8b-\	-or	8dd\	-or
=10-	=10-	=10-	=10-	=10-	=10-	=10-	=10-
2C/	9 6	4.C/	ſor-	4a\	me-	4cc\	me-
.	7 5	.	.	4g/	-a	4b-\	-a
.	.	8C/	-or	.	.	.	.
2D\	3	4.D/	me-	4f#X/	ſpon-	4a\	ſpon-
.	5 4	.	.	2g/	.	8b-\L	.
!	!	!LO:TX:t=P:problem:kreska pseudotaktowa	!	!	!	!	!
.	.	8D/	-a	.	.	16a\L	.
!	!	!	!	!	!	!LO:TX:t=P:problem:kreska pseudotaktowa	!
!	!	!	!	!	!	!LO:SIC:v:t=custos a	!
.	6	.	.	.	.	16g\JJ	.
!	!	!	!	!	!	!LO:LB:g=original	!
2D\	5 4	2DD/	ſpon-	.	.	2a\	.
.	3	.	.	4f#X/	.	.	.
!LO:TX:t=P:problem:kreska pseudotaktowa	!	!	!	!	!	!LO:N:acc=#	!
!LO:TX:a:t=P:problem:# above	!	!	!	!	!	!	!
2GG#X/	.	4GG/	-sa	4g/	-sa,	4bn\	-sa,
!	!	!	!	!LO:TX:t=P:problem:kreska pseudotaktowa	!	!	!
!	!	!	!	!LO:SIC:v:t=custos f	!	!	!
.	.	4r	.	4g/	in	4r	.
!	!	!	!	!LO:LB:g=original	!	!	!
=11-	=11-	=11-	=11-	=11-	=11-	=11-	=11-
4.AAny/	6	1r	.	8fny/	u-	2r	.
.	.	.	.	8eny/	-no	.	.
.	.	.	.	8f/	o-	.	.
!LO:N:acc=#	!	!	!	!	!	!	!
8BBn/	.	.	.	8d/	-cu-	.	.
4C/	.	.	.	8e/	-lo-	4r	.
.	.	.	.	8e/	-rum	.	.
!	!	!	!	!LO:TX:t=P:problem:kreska pseudotaktowa	!	!LO:TX:t=P:problem:kreska pseudotaktowa	!
4AA/	6	.	.	4a\	in	4cc\	in
4.BB/	6	2r	.	8g/	u-	8b\	u-
.	.	.	.	8f/	-no	8a\	-no
.	.	.	.	8g/	o-	8b\	o-
8C/	.	.	.	8e/	-cu-	8g\	-cu-
4FF/	.	4r	.	16f/LL	-lo-	16a\LL	-lo-
.	.	.	.	16e/	.	16g\	.
.	.	.	.	16f/	.	16a\	.
.	.	.	.	16g/JJ	.	16b\JJ	.
!LO:TX:t=P:problem:kreska pseudotaktowa	!	!LO:TX:t=P:problem:kreska pseudotaktowa	!	!LO:TX:t=P:problem:kreska pseudotaktowa	!	!LO:TX:t=P:problem:kreska pseudotaktowa	!
4F\	.	4F\	in	4a\	-rum	4cc\	-rum
=12-	=12-	=12-	=12-	=12-	=12-	=12-	=12-
8E-X\L	.	8E-X\	u-	2r	.	2r	.
8D\	.	8D/	-no	.	.	.	.
8E-X\	.	8E-X\	o-	.	.	.	.
8C\J	.	8C/	-cu-	.	.	.	.
4.D/	.	4D/	-lo-	4r	.	4r	.
.	.	8D/	-rum	4dd\	in	4ff\	in
!LO:SIC:v:t=custos e	!	!LO:TX:t=P:problem:kreska pseudotaktowa	!	!	!	!	!
8D/	.	8D/	tu-	.	.	.	.
!LO:LB:g=original	!	!	!	!	!	!	!
4.E-X\	6	(4.E-X\	-o-	8cc\	u-	8ee-X\	u-
.	.	.	.	8b-\	-no	8dd\	-no
.	.	.	.	8cc\	o-	8ee-X\	a-
8F\	.	8F\)	.	8a\	-cu-	8cc\	-cu-
4BB/	.	4BB/	-rum	8b-\L	-lo-	8dd\L	-lo-
.	.	.	.	16a\L	.	16cc\L	.
.	.	.	.	16g\JJ	.	16b\JJ	.
!LO:TX:t=P:problem:kreska pseudotaktowa	!	!	!	!	!	!	!
4D/	.	8D/	o-	16f/LL	.	16a\LL	.
.	.	.	.	16e/	.	16g\	.
!	!	!LO:TX:t=P:problem:kreska pseudotaktowa	!	!	!	!	!
!	!	!LO:SIC:v:t=custos A	!	!	!	!	!
.	.	8D/	-cu-	16f/	.	16a\	.
!	!	!LO:LB:g=original	!	!LO:TX:t=P:problem:kreska pseudotaktowa	!	!LO:TX:t=P:problem:kreska pseudotaktowa	!
!	!	!	!	!LO:SIC:v:t=custos a	!	!LO:SIC:v:t=custos cc	!
.	.	.	.	16g/JJ	.	16b\JJ	.
!	!	!	!	!	!	!LO:LB:g=original	!
!	!	!	!	!LO:LB:g=original	!	!	!
=13-	=13-	=13-	=13-	=13-	=13-	=13-	=13-
4AA/	.	8AA/L	-lo-	8a\L	.	8cc\L	.
.	.	8BB/J	.	16g\L	.	16b\L	.
.	.	.	.	16f\JJ	.	16a\JJ	.
4C/	.	8C/	-rum	16e/LL	.	16g/LL	.
.	.	.	.	16d/	.	16fny/	.
.	.	8C/	tu-	16e/	.	16g/	.
.	.	.	.	16f/JJ	.	16a/JJ	.
4GGny/	.	8GG/	-o-	4g/	.	4b\	.
.	.	8GG/	-rum	.	.	.	.
!	!	!	!	!LO:TX:t=P:problem:kreska pseudotaktowa	!	!LO:TX:t=P:problem:kreska pseudotaktowa	!
4G\	.	8r	.	4g/	-rum	4b\	-rum
!	!	!LO:TX:t=P:problem:kreska pseudotaktowa	!	!	!	!	!
.	.	8G\	in	.	.	.	.
8F\L	.	8F\	u-	2r	.	2r	.
8E-X\	.	8E-X\	-no	.	.	.	.
8F\	.	8F\	o-	.	.	.	.
8D\J	.	8D/	-cu-	.	.	.	.
!LO:TX:t=P:problem:kreska pseudotaktowa	!	!	!	!	!	!	!
2E-X\	.	4E-X\	-lo-	4r	.	4r	.
.	.	8E-\	-rum	4ee-X\	in	4gg\	in
!	!	!LO:TX:t=P:problem:kreska pseudotaktowa	!	!	!	!	!
.	.	8E-\	tu-	.	.	.	.
=14-	=14-	=14-	=14-	=14-	=14-	=14-	=14-
4.F\	6	(4.F\	-o-	8dd\	u-	8ff\	u-
.	.	.	.	8cc\	-no	8eeny\	-no
.	.	.	.	8dd\	o-	8ff\	o-
!LO:TX:a:t=P:problem:# above	!	!	!	!LO:N:acc=#	!	!	!
8G#X\	.	8G\)	.	8bn\	-cu-	8dd\	-cu-
4C/	.	4C/	-rum	8cc\L	-lo-	8ee-X\L	-lo-
.	.	.	.	16b\L	.	16dd\L	.
.	.	.	.	16a\JJ	.	16cc\JJ	.
4E-X\	.	8E-X\	o-	16g/LL	.	16b\LL	.
.	.	.	.	16f/	.	16a\	.
!	!	!LO:TX:t=P:problem:kreska pseudotaktowa	!	!	!	!	!
.	.	8E-\	-cu-	16g/	.	16b\	.
!	!	!	!	!LO:TX:t=P:problem:kreska pseudotaktowa	!	!LO:TX:t=P:problem:kreska pseudotaktowa	!
.	.	.	.	16a/JJ	.	16cc\JJ	.
4BB/	.	8BB/L	-lo-	8b\L	.	8dd\L	.
.	.	8C/J	.	16a\L	.	16cc\L	.
.	.	.	.	16g\JJ	.	16b\JJ	.
4D/	.	8D\	-rum	16f/LL	.	16a\LL	.
.	.	.	.	16e/	.	16g\	.
.	.	8D\	tu-	16f/	.	16a\	.
.	.	.	.	16g/JJ	.	16b\JJ	.
4AA/	.	4AA/	-o-	4a\	.	4cc\	.
!LO:TX:t=P:problem:kreska pseudotaktowa	!	!	!	!	!	!	!
4BB/	.	8BB/	-rum,	8g/	-rum	8b\	-rum
!	!	!	!	!LO:TX:t=P:problem:kreska pseudotaktowa	!	!LO:TX:t=P:problem:kreska pseudotaktowa	!
!	!	!LO:TX:t=P:problem:kreska pseudotaktowa	!	!LO:SIC:v:t=custos f	!	!LO:SIC:v:t=custos g	!
.	.	8BB/	tu-	8f/	tu-	8a\	tu-
!	!	!	!	!	!	!LO:LB:g=original	!
!	!	!LO:LB:g=original	!	!LO:LB:g=original	!	!	!
=15-	=15-	=15-	=15-	=15-	=15-	=15-	=15-
2C/	.	2C/	-o-	(4.f/	-o-	2g/	-o-
.	.	.	.	8e/)	.	.	.
2F\	.	4FF/	-rum,	4f/	-rum	4a\	-rum
.	.	8F\	et	4r	.	4r	.
!	!	!LO:TX:t=P:problem:kreska pseudotaktowa	!	!	!	!	!
.	.	8G\	in	.	.	.	.
4.F\	.	4A\	u-	2r	.	2r	.
.	.	8A\	-no	.	.	.	.
!	!	!LO:N:acc=#	!	!	!	!	!
8D\	6/	8Bn\	li-	.	.	.	.
!LO:TX:t=P:problem:kreska pseudotaktowa	!	!	!	!	!	!	!
!LO:SIC:v:t=custos G	!	!	!	!	!	!	!
2C/	.	4c\	-ga-	4r	.	4r	.
.	.	8C/	-mi-	8e/	et	8g/	et
!LO:LB:g=original	!	!LO:TX:t=P:problem:kreska pseudotaktowa	!	!LO:TX:t=P:problem:kreska pseudotaktowa	!	!LO:TX:t=P:problem:kreska pseudotaktowa	!
.	.	8C/	-ne	8f/	in	8a\	in
=16-	=16-	=16-	=16-	=16-	=16-	=16-	=16-
4GG/	.	4.G\	col-	4g/	u-	4b\	u-
4Gny\	.	.	.	8b\	-no	8dd\	-no
.	.	8G\	-li	8cc\	li-	8eeny\	li-
8D\L	.	(8D\L	tu-	4dd\	-ga-	4ff\	-ga-
8E-X\J	.	8E-X\J	.	.	.	.	.
!	!	!LO:TX:t=P:problem:kreska pseudotaktowa	!	!	!	!	!
4F\	.	4F\)	.	8a\	-mi-	8cc\	-mi-
!	!	!	!	!LO:TX:t=P:problem:kreska pseudotaktowa	!	!LO:TX:t=P:problem:kreska pseudotaktowa	!
.	.	.	.	8b\	-ne	8dd\	-ne
!LO:TX:a:t=P:problem:♭ above	!	!	!	!	!	!	!
4C-/	.	4C/	-i	4cc\	col-	4ee-X\	col-
4D\	6	8D/	col-	4b\	-li	4dd\	-li
.	.	8D/	-li	.	.	.	.
!	!	!	!	!	!	!LO:TX:t=P:problem:kreska pseudotaktowa	!
4E-X\	.	8E-X\L	tu-	(4.b\	tu-	2cc\	tu-
.	.	8C\	.	.	.	.	.
!LO:TX:t=P:problem:kreska pseudotaktowa	!	!	!	!	!	!	!
4F\	.	8F\	.	.	.	.	.
!	!	!LO:TX:t=P:problem:kreska pseudotaktowa	!	!LO:TX:t=P:problem:kreska pseudotaktowa	!	!	!
.	.	8FF/J	.	8a\)	.	.	.
=17-	=17-	=17-	=17-	=17-	=17-	=17-	=17-
4.BB/	.	4BB/	-i	4b\	-i	4dd\	-i
.	.	8BB/	et	4r	.	8dd\	et
!	!	!LO:SIC:v:t=custos	!	!	!	!	!
8Cny/	.	8C/	in	.	.	8ee-X\	in
!	!	!LO:LB:g=original	!	!LO:TX:t=P:problem:kreska pseudotaktowa	!	!	!
!	!	!	!	!LO:SIC:v:t=custos a	!	!	!
4D/	.	4D\	u-	2r	.	4ff\	u-
4E-X\	.	8E-X\	-no	.	.	8ee-X\	-no
!	!	!	!	!LO:LB:g=original	!	!LO:TX:t=P:problem:kreska pseudotaktowa	!
!	!	!LO:TX:t=P:problem:kreska pseudotaktowa	!	!	!	!LO:SIC:v:t=custos cc	!
.	.	8E-\	li-	.	.	8dd\	li-
!	!	!	!	!	!	!LO:LB:g=original	!
2F\	.	4.F\	-ga-	4r	.	4cc\	-ga-
.	.	.	.	8a\	et	8cc\	-mi-
.	.	8F\	-mi-	8b\	in	8dd\	-ne
!LO:TX:t=P:problem:kreska pseudotaktowa	!	!LO:TX:t=P:problem:kreska pseudotaktowa	!	!	!	!	!
!LO:TX:a:t=P:problem:♭ above	!	!	!	!	!	!	!
2C-/	.	2C/	-ne	4cc\	u-	4.ee-X\	col-
.	.	.	.	8g/	-no	.	.
!	!	!	!	!	!	!LO:TX:t=P:problem:kreska pseudotaktowa	!
.	.	.	.	8a\	li-	8ee-\	-li
=18-	=18-	=18-	=18-	=18-	=18-	=18-	=18-
4GG/	.	4.G\	col-	2.b\	-ga-	2dd\	tu-
8G\L	.	.	.	.	.	.	.
8F\J	.	8F\	.	.	.	.	.
!	!	!	!	!	!	!LO:TX:t=P:problem:kreska pseudotaktowa	!
4Eny\	.	4Eny\	.	.	.	2cc\	-i,
!LO:TX:t=P:problem:kreska pseudotaktowa	!	!LO:TX:t=P:problem:kreska pseudotaktowa	!	!LO:TX:t=P:problem:kreska pseudotaktowa	!	!	!
4F#X\	.	4F#X\	-li	4a\	-mi-	.	.
8G\L	.	8G\L	tu-	4a\	-ne	4.b\	col-
8F#\	.	8F#\	.	.	.	.	.
8E-X\	.	8E-X\	.	8g/L	col-	.	.
8D\J	.	8D\J	.	8f/J	.	8b\	-li
2Cny/	.	4.C/	.	8e/L	-li	4.cc\	tu-
!	!	!	!	!LO:TX:b:t=P:problem:# below	!	!	!
.	.	.	.	8f#X/J	.	.	.
!	!	!	!	!LO:TX:t=P:problem:kreska pseudotaktowa	!	!	!
.	.	.	.	4g/	.	.	.
!	!	!	!	!	!	!LO:TX:t=P:problem:kreska pseudotaktowa	!
.	.	8C/	-i	.	.	8b\	.
=19-	=19-	=19-	=19-	=19-	=19-	=19-	=19-
2D/	4	2D/	tu-	(4.g/	tu-	8a\L	.
.	.	.	.	.	.	8g\J	.
.	.	.	.	.	.	4a\	.
!	!	!	!	!LO:TX:b:t=P:problem:# below	!	!	!
.	.	.	.	8f#X/)	.	.	.
!	!	!	!	!	!	!	!
!LO:TX:t=P:problem:kreska pseudotaktowa	!	!LO:TX:t=P:problem:kreska pseudotaktowa	!	!LO:TX:t=P:problem:kreska pseudotaktowa	!	!LO:TX:t=P:problem:kreska pseudotaktowa	!
!LO:TX:a:t=P:problem:♭ above	!	!	!	!	!	!	!
2GG-/	.	2GG/	-i	2g/	-i	2b\	-i
1ryy	.	1ryy	.	1ryy	.	1ryy	.
!LO:LB:g=original	!	!	!	!	!	!	!
=20-	=20-	=20-	=20-	=20-	=20-	=20-	=20-
*M3/1	*	*M3/1	*	*M3/1	*	*M3/1	*
2GGny/	.	2GG/	Quam	2b\	Quam	2dd\	Quam
2C/	.	2C/	pul-	(4a\	pul-	(4cc\	pul-
.	.	.	.	4g\)	.	4b\)	.
!	!	!LO:TX:t=P:problem:kreska pseudotaktowa	!	!LO:TX:t=P:problem:kreska pseudotaktowa	!	!	!
!LO:TX:t=P:problem:kreska pseudotaktowa	!	!LO:SIC:v:t=custos g	!	!LO:SIC:v:t=custos g	!	!LO:SIC:v:t=custos b	!
2D/	.	2D/	-chra	2f#X/	-chra	2a\	-chra
!	!	!	!	!	!	!LO:PB:g=original	!
!	!	!LO:LB:g=original	!	!LO:PB:g=original	!	!	!
2G\	.	2G\	ſunt	2g/	ſunt	2b-\	ſunt
2D/	.	4r	.	4r	.	4r	.
*	*	*	*ij	*	*	*	*
.	.	4D/	quam	4dd\	quam	4ff\	quam
4E-X\	.	4E-X\	pul-	4cc\	pul-	4ee-X\	pul-
!LO:TX:t=P:problem:kreska pseudotaktowa	!	!LO:TX:t=P:problem:kreska pseudotaktowa	!	!LO:TX:t=P:problem:kreska pseudotaktowa	!	!LO:TX:t=P:problem:kreska pseudotaktowa	!
4Fny\	.	4Fny\	-chra	4a\	-chra	4cc\	-chra
=21-	=21-	=21-	=21-	=21-	=21-	=21-	=21-
2BB/	.	2BB/	ſunt	(4b\	ſunt	(4dd\	ſunt
*	*	*	*Xij	*	*	*	*
.	.	.	.	8a\L	.	8cc\L	.
.	.	.	.	8g\J)	.	8b-\J)	.
2D/	.	2D/	u-	8fny/L	u-	8a\L	u-
.	.	.	.	8e/	.	8g\	.
.	.	.	.	8f/	.	8a\	.
.	.	.	.	8g/J	.	8b-\J	.
!	!	!	!	!LO:TX:t=P:problem:kreska pseudotaktowa	!	!LO:TX:t=P:problem:kreska pseudotaktowa	!
2AA/	6	4AA/	-be-	2a\	.	2cc\	.
!	!	!LO:TX:t=P:problem:kreska pseudotaktowa	!	!	!	!	!
.	.	4AA/	-ra	.	.	.	.
4BB/	.	(4BB/	tu-	4d/	-be-	4f/	-be-
4FF/	.	4FF/)	.	4f/	-ra	4a\	-ra
2C/	.	2C/	.	(4.f/	tu-	2g/	tu-
.	.	.	.	8e/)	.	.	.
!LO:TX:t=P:problem:kreska pseudotaktowa	!	!	!	!	!	!	!
2F\	.	4FF/	-a	4f/	-a	4a\	-a,
!	!	!LO:TX:t=P:problem:kreska pseudotaktowa	!	!LO:TX:t=P:problem:kreska pseudotaktowa	!	!LO:TX:t=P:problem:kreska pseudotaktowa	!
.	.	4F\	quam	4f/	quam	4a\	quam
=22-	=22-	=22-	=22-	=22-	=22-	=22-	=22-
2E-X\	.	(4E-X\	pul-	2g/	pul-	2b-\	pul-
.	.	4D\)	.	.	.	.	.
2C/	6	2C/	-chra	2a\	-chra	2cc\	-chra
4BB/	.	4BB/	ſunt	4b\	.	4dd\	.
!	!	!LO:TX:t=P:problem:kreska pseudotaktowa	!	!LO:TX:t=P:problem:kreska pseudotaktowa	!	!LO:TX:t=P:problem:kreska pseudotaktowa	!
4FF/	.	4FF/	u-	4a\	ſunt	4cc\	ſunt
*	*	*	*	*	*ij	*	*ij
4BB/	.	4BB/	-be-	2.b\	pul-	2dd\	pul-
4AA/	.	4AA/	-ra	.	.	.	.
2GG/	.	2GG/	tu-	.	.	2eeny\	-chra
.	.	.	.	4b\	-chra	.	.
!LO:TX:t=P:problem:kreska pseudotaktowa	!	!LO:TX:t=P:problem:kreska pseudotaktowa	!	!	!	!LO:TX:t=P:problem:kreska pseudotaktowa	!
!LO:SIC:v:t=custos c	!	!LO:SIC:v:t=custos c	!	!	!	!LO:SIC:v:t=custos ee	!
2FF/	.	2FF/	-a	(4a\	ſunt	2ff\	ſunt
*	*	*	*	*	*Xij	*	*Xij
!	!	!	!	!	!	!LO:LB:g=original	!
!LO:LB:g=original	!	!LO:PB:g=original	!	!LO:TX:t=P:problem:kreska pseudotaktowa	!	!	!
!	!	!	!	!LO:SIC:v:t=custos cc	!	!	!
.	.	.	.	4b\)	.	.	.
!	!	!	!	!LO:LB:g=original	!	!	!
=23-	=23-	=23-	=23-	=23-	=23-	=23-	=23-
4Cny/	.	4C/	ſor-	4cc\	ſor-	4ee\	ſor-
4BB/	.	4BB-/	-or	4cc\	-or	4ee\	-or
4AA-X/	.	4AA-X/	me-	4cc\	me-	4ee\	me-
4FF/	.	4FF/	-a	4cc\	-a	4dd\	-a
!	!	!LO:TX:t=P:problem:kreska pseudotaktowa	!	!	!	!LO:TX:t=P:problem:kreska pseudotaktowa	!
2GG/	.	2GG/	ſpon-	(4.cc\	ſpon-	2dd\	ſpon-
!	!	!	!	!LO:TX:t=P:problem:kreska pseudotaktowa	!	!	!
!	!	!	!	!LO:N:acc=#	!	!	!
.	.	.	.	8bn\)	.	.	.
2C/	.	2C/	-sa,	2cc\	-sa	2ee-X\	-sa,
2D\	.	4r	.	4r	.	4r	.
.	.	4D/	quam	4b\	quam	4dd\	quam
4E-X\	.	4E-X\	pul-	4b\	pul-	4cc\	pul-
!LO:TX:t=P:problem:kreska pseudotaktowa	!	!LO:TX:t=P:problem:kreska pseudotaktowa	!	!LO:TX:t=P:problem:kreska pseudotaktowa	!	!LO:TX:t=P:problem:kreska pseudotaktowa	!
4F\	.	4F\	-chra	4a\	-chra	4cc\	-chra
=24-	=24-	=24-	=24-	=24-	=24-	=24-	=24-
2BB/	.	2BB-/	ſunt	2b\	ſunt	2dd\	ſunt
2D/	.	2r	.	4f/	ſor-	4a\	ſor-
.	.	.	.	4g/	-or	4b-\	-or
2AAny/	.	4AAny/	ſor-	4a\	me-	4cc\	me-
!	!	!LO:TX:t=P:problem:kreska pseudotaktowa	!	!LO:TX:t=P:problem:kreska pseudotaktowa	!	!LO:TX:t=P:problem:kreska pseudotaktowa	!
.	.	4BB-/	-or	4a\	-a	4cc\	-a
2C/	.	2C/	me-	4e/	ſor-	4g/	ſor-
.	.	.	.	4f/	-or	4a\	-or
2GG/	.	2GG/	-aa	4g/	me-	4b-\	me-
.	.	.	.	4g/	-a	4a\	-a
!LO:TX:t=P:problem:kreska pseudotaktowa	!	!LO:TX:t=P:problem:kreska pseudotaktowa	!	!	!	!LO:TX:t=P:problem:kreska pseudotaktowa	!
2D/	5 4	2D/	ſpon-	(4.g/	ſpon-	2a\	ſpon-
!	!	!	!	!LO:TX:t=P:problem:kreska pseudotaktowa	!	!	!
!	!	!	!	!LO:SIC:v:t=custos g	!	!	!
.	.	.	.	8f#X/)	.	.	.
!	!	!	!	!LO:LB:g=original	!	!	!
=25-	=25-	=25-	=25-	=25-	=25-	=25-	=25-
4G\	.	4G\	-sa,	4g/	-sa	4b-\	-sa,
4D\	.	4D/	quam	4b\	qua	4ff\	quam
2E-X\	.	2E-X\	pul-	(4cc\	pul-	(4ee-X\	pul-
.	.	.	.	4b\)	.	4dd\)	.
!	!	!LO:TX:t=P:problem:kreska pseudotaktowa	!	!	!	!LO:TX:t=P:problem:kreska pseudotaktowa	!
!	!	!LO:SIC:v:t=custos B	!	!LO:TX:t=P:problem:kreska pseudotaktowa	!	!LO:SIC:v:t=custos dd	!
2F\	.	2F\	-chra	2a\	-chra	2cc\	-chra
!	!	!	!	!	!	!LO:LB:g=original	!
!	!	!LO:LB:g=original	!	!	!	!	!
2BB/	.	2BB-/	ſunt	2b\	ſunt	2dd\	sunt
2.AA/	.	2.AA/	u-	2r	.	2r	.
!	!	!	!	!LO:TX:t=P:problem:kreska pseudotaktowa	!	!	!
.	.	.	.	1fny/	quam	2cc\	quam
!	!	!LO:TX:t=P:problem:kreska pseudotaktowa	!	!	!	!	!
4BB/	.	4BB-/	-be-	.	.	.	.
=26-	=26-	=26-	=26-	=26-	=26-	=26-	=26-
!LO:TX:t=P:problem:kreska pseudotaktowa	!	!	!	!	!	!	!
!LO:SIC:v:t=custos F	!	!	!	!	!	!	!
1.C	.	1C	-ra	.	.	1g	pul-
.	.	.	.	2.e/	pul-	.	.
!LO:LB:g=original	!	!LO:TX:t=P:problem:kreska pseudotaktowa	!	!	!	!	!
.	.	2CC/	tu-	.	.	(4g\	-chra
.	.	.	.	4f/	-chra	4a\)	.
1.ryy	.	1.ryy	.	1.ryy	.	1.ryy	.
=27-	=27-	=27-	=27-	=27-	=27-	=27-	=27-
*M2/1	*	*M2/1	*	*M2/1	*	*M2/1	*
2F\	.	2FF/	-a	2f/	ſunt	2a\	ſunt,
2FF/	.	2r	.	2r	.	4r	.
.	.	.	.	.	.	8cc\	me-
!	!	!	!	!	!	!LO:TX:t=P:problem:kreska pseudotaktowa	!
.	.	.	.	.	.	8cc\	-li-
4FF/	6	4r	.	4r	.	4dd\	-o-
4FF#X/	6	8FF#X/	me-	8a\	me-	4dd\	-ra
.	.	8FF#/	-li-	8a\	-li-	.	.
!LO:TX:t=P:problem:kreska pseudotaktowa	!	!	!	!	!	!	!
2GG/	.	4GG/	-o-	4b\	-o-	4r	.
!	!	!LO:TX:t=P:problem:kreska pseudotaktowa	!	!LO:TX:t=P:problem:kreska pseudotaktowa	!	!	!
.	.	4GG/	-ra	4b\	-ra	4dd\	ſunt
=28-	=28-	=28-	=28-	=28-	=28-	=28-	=28-
!LO:TX:a:t=P:problem:♭ above	!	!	!	!	!	!	!
2GG-/	6 3	4r	.	4r	.	2ee-X\	u-
.	.	4GG/	ſunt	4b\	ſunt	.	.
!LO:TX:a:t=P:problem:♭ above	!	!	!	!	!	!	!
2AA-/	5	4AA/	u-	4cc\	u-	4.ee-\	-be-
.	.	8AA/	-be-	8cc\	-be-	.	.
!	!	!	!	!LO:TX:t=P:problem:kreska pseudotaktowa	!	!	!
!	!	!LO:TX:t=P:problem:kreska pseudotaktowa	!	!LO:SIC:v:t=custos c	!	!LO:TX:t=P:problem:kreska pseudotaktowa	!
.	.	8AA/	-ra	8cc\	-ra	8dd\	-ra
!	!	!	!	!LO:LB:g=original	!	!	!
2BB/	9 8	4.BB-/	tu-	4cc\	tu-	4.dd\	tu-
.	.	.	.	4b\	-a	.	.
.	.	8BB-/	-a	.	.	8cc\	-a
!	!	!	!	!	!	!LO:TX:t=P:problem:kreska pseudotaktowa	!
4E-X\	.	8E-X\L	vi-	(4.b\	vi-	2cc\	vi-
.	.	8C\	.	.	.	.	.
!LO:TX:t=P:problem:kreska pseudotaktowa	!	!	!	!	!	!	!
4F\	.	8F\	.	.	.	.	.
!	!	!LO:TX:t=P:problem:kreska pseudotaktowa	!	!	!	!	!
!	!	!LO:SIC:v:t=custos B	!	!LO:TX:t=P:problem:kreska pseudotaktowa	!	!	!
.	.	8FFny/J	.	8a\)	.	.	.
!	!	!LO:LB:g=original	!	!	!	!	!
=29-	=29-	=29-	=29-	=29-	=29-	=29-	=29-
2.BB/	.	4BB-/	-no	4b\	-no	4dd\	-no
!	!	!	!	!	!	!LO:SIC:v:t=custos bb	!
!	!	!	!	!	!	!LO:SIC:v:t=custos dd	!
.	.	4r	.	8f/	me-	4r	.
!	!	!	!	!	!	!LO:LB:g=original	!
.	.	.	.	8f/	-li-	.	.
!	!	!	!	!LO:TX:t=P:problem:kreska pseudotaktowa	!	!	!
.	.	4r	.	2g/	-o-	4r	.
!LO:N:acc=#	!	!LO:N:acc=#	!	!	!	!	!
4BBn/	.	8BBn/	me-	.	.	8dd\	me-
!	!	!LO:TX:t=P:problem:kreska pseudotaktowa	!	!	!	!LO:TX:t=P:problem:kreska pseudotaktowa	!
.	.	8BB/	-li-	.	.	8dd\	-li-
!LO:TX:a:t=P:problem:♭ above	!	!	!	!	!	!	!
2C-/	6 3	4C/	-o-	4g/	-ra	4ee-X\	-o-
.	.	8C/	-ra	4a\	ſunt	8ee-\	-ra
.	.	8C/	ſunt	.	.	8ee-\	ſunt
!LO:TX:t=P:problem:kreska pseudotaktowa	!	!	!	!	!	!	!
!LO:TX:a:t=P:problem:# above	!	!	!	!	!	!	!
2D#X/	.	4D/	u-	4f#X/	u-	4dd\	u-
.	.	8D/	-be-	8f#/	-be-	8dd\	-be-
!	!	!LO:TX:t=P:problem:kreska pseudotaktowa	!	!LO:TX:t=P:problem:kreska pseudotaktowa	!	!LO:TX:t=P:problem:kreska pseudotaktowa	!
.	.	8D/	-ra	8f#/	-ra	8dd\	-ra
=30-	=30-	=30-	=30-	=30-	=30-	=30-	=30-
2E-X\	7 6	4.E-X\	tu-	4.g/	tu-	4dd\	tu-
.	.	.	.	.	.	4cc\	-a
.	.	8E-\	-a	8a\	-a	.	.
!LO:TX:a:t=P:problem:# above	!	!	!	!	!	!	!
2D#X\	.	8D/	vi-	8f#X/	vi-	4dd\	vi-
.	.	8D/	-no	8f#/	-no	.	.
!	!	!	!	!	!	!LO:TX:t=P:problem:kreska pseudotaktowa	!
.	.	8D/	et	8a\	et	4dd\	-no
!	!	!	!	!LO:TX:t=P:problem:kreska pseudotaktowa	!	!	!
!	!	!LO:TX:t=P:problem:kreska pseudotaktowa	!	!LO:SIC:v:t=custos b	!	!	!
.	.	8D/	fra-	8a\	fra-	.	.
!	!	!	!	!LO:LB:g=original	!	!	!
2GGny/	.	16G\LL	-gran-	16b-\LL	-gran-	4r	.
.	.	16A\	.	16cc\	.	.	.
.	.	16B\	.	16dd\	.	.	.
.	.	16A\JJ	.	16cc\JJ	.	.	.
.	.	16G\LL	.	16b-\LL	.	8b-\	et
.	.	16F\	.	16a\	.	.	.
.	.	16E-\	.	16g\	.	8b-\	fra-
!	!	!LO:SIC:v:t=custos c	!	!	!	!	!
.	.	16D\JJ	.	16f#\JJ	.	.	.
!	!	!LO:LB:g=original	!	!	!	!	!
!LO:TX:t=P:problem:kreska pseudotaktowa	!	!	!	!	!	!	!
!LO:SIC:v:t=custos d	!	!	!	!	!	!	!
!LO:TX:a:t=P:problem:♭ above	!	!	!	!	!	!	!
2C-/	.	8C/	.	8.g/	.	16cc\LL	-gran-
!LO:LB:g=original	!	!	!	!	!	!	!
.	.	.	.	.	.	16dd\	.
.	.	16C/	-ti-	.	.	16ee-X\	.
.	.	16C/	-a	16g/	-ti-	16dd\JJ	.
!	!	!	!	!LO:TX:t=P:problem:kreska pseudotaktowa	!	!	!
.	.	8C/	un	4e-X/	-a	16cc\LL	.
.	.	.	.	.	.	16b-\	.
!	!	!LO:TX:t=P:problem:kreska pseudotaktowa	!	!	!	!	!
.	.	8C/	guen-	.	.	16a\	.
!	!	!	!	!	!	!LO:TX:t=P:problem:kreska pseudotaktowa	!
!	!	!	!	!	!	!LO:SIC:v:t=custos f	!
.	.	.	.	.	.	16g\JJ	.
!	!	!	!	!	!	!LO:LB:g=original	!
=31-	=31-	=31-	=31-	=31-	=31-	=31-	=31-
!LO:TX:a:t=P:problem:♭ above	!	!	!	!	!	!	!
2D-/	.	16D\LL	-to-	4r	.	8f/	.
.	.	16Eny\	.	.	.	.	.
.	.	16F\	.	.	.	16f/	-ti-
.	.	16E\JJ	.	.	.	16f/	-a
.	.	16D/LL	.	8fny/	un-	8a\	un
.	.	16C/	.	.	.	.	.
.	.	16BB/	.	8f/	-guen-	8a\	guen-
.	.	16AA/JJ	.	.	.	.	.
!	!	!LO:TX:t=P:problem:kreska pseudotaktowa	!	!	!	!	!
2GG/	.	2GG/	.	16g\LL	-to-	16b-\LL	-to-
.	.	.	.	16a\	.	16cc\	.
.	.	.	.	16b-\	.	16dd\	.
.	.	.	.	16a\JJ	.	16cc\JJ	.
.	.	.	.	16g/LL	.	16b-\LL	.
.	.	.	.	16f/	.	16a\	.
.	.	.	.	16g/	.	16b-\	.
!	!	!	!	!LO:TX:t=P:problem:kreska pseudotaktowa	!	!LO:TX:t=P:problem:kreska pseudotaktowa	!
.	.	.	.	16eny/JJ	.	16g\JJ	.
2Dny/	.	4D/	-rum	16f/LL	.	16a\LL	.
.	.	.	.	16d/	.	16f\	.
.	.	.	.	16f/	.	16a\	.
.	.	.	.	16e/JJ	.	16g\JJ	.
.	.	8D/	un-	(16d/LL	-zum	(16f/LL	-zum
.	.	.	.	16e/JJ)	.	16g/JJ)	.
.	.	8D/	-guen-	(16f/LL	tu-	(16a\LL	tu-
.	.	.	.	16g/JJ)	.	16b-\JJ)	.
4AAny/	.	8AA/L	-to-	8a\L	-o-	8cc\L	-o-
.	.	8BB/J	.	16g\L	.	16b-\L	.
.	.	.	.	16f\JJ	.	16a\JJ	.
!LO:TX:t=P:problem:kreska pseudotaktowa	!	!	!	!	!	!	!
4Cny/	.	8C/	-rum	16e/LL	.	16g/LL	.
.	.	.	.	16d/	.	16f/	.
!	!	!LO:TX:t=P:problem:kreska pseudotaktowa	!	!	!	!	!
.	.	8C/	tu-	16e/	.	16g/	.
!	!	!	!	!LO:TX:t=P:problem:kreska pseudotaktowa	!	!	!
!	!	!	!	!LO:SIC:v:t=custos g	!	!LO:TX:t=P:problem:kreska pseudotaktowa	!
.	.	.	.	16f/JJ	.	16a/JJ	.
!	!	!	!	!LO:LB:g=original	!	!	!
=32-	=32-	=32-	=32-	=32-	=32-	=32-	=32-
4GG/	.	8GG/	-o-	8g/	.	8b-\	.
.	.	8GG/	-rum	8g/	-zum,	8b-\	-zum
4AA/	.	8AA/	ſup-	8c/	ſup-	8cc\	ſup-
!	!	!LO:SIC:v:t=custos B	!	!	!	!LO:SIC:v:t=custos b	!
.	.	8AA/	-ra	8c/	-ra	8cc\	-ra
!	!	!LO:LB:g=original	!	!	!	!LO:LB:g=original	!
2BB/	.	4BB-/	cun-	(8d/L	cun-	4b-\	cun-
.	.	.	.	8e/J)	.	.	.
.	.	8BB-/	-cta	8f/	-cta	8b-\	-cta
!	!	!LO:TX:t=P:problem:kreska pseudotaktowa	!	!LO:TX:t=P:problem:kreska pseudotaktowa	!	!LO:TX:t=P:problem:kreska pseudotaktowa	!
.	.	8BB-/	a-	8f/	a-	8a\	a-
2C/	5 4	8C/	-ro-	4.f/	-ro-	4.g/	-ro-
.	3	16C/	-ma-	.	.	.	.
.	.	16C/	-ta,	.	.	.	.
.	.	8C/	et	.	.	.	.
.	.	8C/	fra-	8e/	-ma-	8g/	-ma-
!LO:TX:t=P:problem:kreska pseudotaktowa	!	!	!	!	!	!	!
2FFny/	.	16F\LL	-gran-	4f/	-ta	4a\	-ta,
.	.	16G\	.	.	.	.	.
.	.	16A\	.	.	.	.	.
.	.	16G\JJ	.	.	.	.	.
.	.	16F\LL	.	8a\	et	8cc\	et
.	.	16E\	.	.	.	.	.
!	!	!	!	!LO:TX:t=P:problem:kreska pseudotaktowa	!	!LO:TX:t=P:problem:kreska pseudotaktowa	!
.	.	16D\	.	8a\	fra-	8cc\	fra-
!	!	!LO:TX:t=P:problem:kreska pseudotaktowa	!	!	!	!	!
.	.	16C\JJ	.	.	.	.	.
=33-	=33-	=33-	=33-	=33-	=33-	=33-	=33-
2BB/	.	8BB-/	.	16b-\LL	-gran-	16dd\LL	-gran-
.	.	.	.	16cc\	.	16eeny\	.
.	.	16BB-/	-ti-	16dd\	.	16ff\	.
.	.	16BB-/	-a	16cc\JJ	.	16ee\JJ	.
.	.	8BB-/	un-	16b-\LL	.	16dd\LL	.
.	.	.	.	16a\	.	16cc\	.
.	.	8BB-/	-guen-	16g\	.	16b-\	.
.	.	.	.	16f\JJ	.	16a\JJ	.
4E-X\	6 5	4E-X\	-to-	8g\L	.	8b-\L	.
.	.	.	.	16a\L	.	16cc\L	.
.	.	.	.	16b-\JJ	.	16dd\JJ	.
4C/	.	8C/	-rum	16cc\LL	.	16ee-X\LL	.
.	.	.	.	16a\	.	16cc\	.
!	!	!LO:TX:t=P:problem:kreska pseudotaktowa	!	!	!	!	!
!	!	!LO:SIC:v:t=custos f	!	!	!	!	!
.	.	8C/	tu-	16b-\	.	16dd\	.
!	!	!LO:LB:g=original	!	!LO:TX:t=P:problem:kreska pseudotaktowa	!	!LO:TX:t=P:problem:kreska pseudotaktowa	!
!	!	!	!	!LO:SIC:v:t=custos a	!	!	!
.	.	.	.	16g\JJ	.	16b-\JJ	.
!	!	!	!	!LO:LB:g=original	!	!	!
4F\	.	8F\	-o-	8a\	.	8cc\	.
.	.	8F\	-rum	16a\	-ti-	16cc\	-ti-
.	.	.	.	16a\	-a	16cc\	-a
4D/	.	8D/	un-	8b-\	un-	8ff\	un-
!	!	!	!	!	!	!LO:SIC:v:t=custos ee	!
.	.	8D/	-guen-	8a\	-guen-	8ff\	-guen-
!LO:TX:t=P:problem:kreska pseudotaktowa	!	!	!	!	!	!LO:LB:g=original	!
2E-X\	.	4E-X\	-to-	(8g\L	-to-	4ee-X\	-to-
.	.	.	.	8a\J)	.	.	.
.	.	8E-\	-ru	8b-\	-rum	8ee-\	-rum
!	!	!LO:TX:t=P:problem:kreska pseudotaktowa	!	!LO:TX:t=P:problem:kreska pseudotaktowa	!	!LO:TX:t=P:problem:kreska pseudotaktowa	!
.	.	8E-\	tu-	8b-\	tu-	8dd\	tu-
=34-	=34-	=34-	=34-	=34-	=34-	=34-	=34-
2F\	5 4	8F\	-o-	(4.b-\	-o-	2cc\	-o-
.	3	8F\	-rum	.	.	.	.
.	.	8F\	et	.	.	.	.
.	.	8F\	fra-	8a\)	.	.	.
2BB/	.	16B\LL	-gran-	4b-\	-rum	4dd\	-rum
.	.	16c\	.	.	.	.	.
.	.	16d\	.	.	.	.	.
.	.	16c\JJ	.	.	.	.	.
.	.	16B\LL	.	4r	.	4r	.
.	.	16A\	.	.	.	.	.
.	.	16G\	.	.	.	.	.
!	!	!LO:TX:t=P:problem:kreska pseudotaktowa	!	!	!	!	!
.	.	16F\JJ	.	.	.	.	.
!	!	!	!	!	!	!LO:TX:b:t=3	!
2E-X\	.	16E-X\LL	.	1r	.	1r	.
.	.	16G\	.	.	.	.	.
.	.	16E-X\	.	.	.	.	.
.	.	16F\JJ	.	.	.	.	.
.	.	16E-X\LL	.	.	.	.	.
.	.	16F\	.	.	.	.	.
.	.	16G\	.	.	.	.	.
!	!	!LO:SIC:v:t=custos b	!	!	!	!	!
.	.	16A\JJ	.	.	.	.	.
!	!	!LO:LB:g=original	!	!	!	!	!
!LO:TX:t=P:problem:kreska pseudotaktowa	!	!	!	!	!	!	!
!LO:SIC:v:t=custos f	!	!	!	!	!	!	!
2BB/	.	16B\LL	.	.	.	.	.
!LO:PB:g=original	!	!	!	!	!	!	!
.	.	16BBny/	.	.	.	.	.
.	.	16D/	.	.	.	.	.
.	.	16C/JJ	.	.	.	.	.
.	.	16BB/LL	.	.	.	.	.
.	.	16C/	.	.	.	.	.
.	.	16D/	.	.	.	.	.
!	!	!LO:TX:t=P:problem:kreska pseudotaktowa	!	!	!	!	!
.	.	16E-/JJ	.	.	.	.	.
=35-	=35-	=35-	=35-	=35-	=35-	=35-	=35-
!	!	!	!	!LO:TX:t=P:problem:kreska pseudotaktowa	!	!LO:TX:t=P:problem:kreska pseudotaktowa	!
4F\	.	8F\	.	1r	.	0r	.
.	.	16F\	-ti-	.	.	.	.
.	.	16F\	-a	.	.	.	.
8G\L	.	8G\	un-	.	.	.	.
8A\J	.	8A\	-guen-	.	.	.	.
4B-\	.	(8B\L	-to-	.	.	.	.
.	.	8A\J)	.	.	.	.	.
4G\	.	(16B\LL	-rum	.	.	.	.
.	.	16A\JJ)	.	.	.	.	.
.	.	(16Bny\LL	tu-	.	.	.	.
!	!	!LO:TX:t=P:problem:kreska pseudotaktowa	!	!	!	!	!
.	.	16G\JJ)	.	.	.	.	.
2A\	.	8A\L	-o-	4r	.	.	.
.	.	8G\	.	.	.	.	.
.	.	8A\	.	8e/	et	.	.
.	.	8AA/J	.	8e/	fra-	.	.
!LO:TX:t=P:problem:kreska pseudotaktowa	!	!	!	!	!	!	!
!LO:TX:a:t=P:problem:♭ above	!	!	!	!	!	!	!
2D-/	.	4D/	-rum	16f/LL	-gran-	.	.
.	.	.	.	16g/	.	.	.
.	.	.	.	16a/	.	.	.
.	.	.	.	16g/JJ	.	.	.
.	.	8D/	et	16f/LL	.	.	.
.	.	.	.	16d/	.	.	.
!	!	!LO:TX:t=P:problem:kreska pseudotaktowa	!	!	!	!	!
.	.	8D/	fra-	16dd\	.	.	.
!	!	!	!	!LO:TX:t=P:problem:kreska pseudotaktowa	!	!	!
!	!	!	!	!LO:SIC:v:t=custos b	!	!	!
.	.	.	.	16cc\JJ	.	.	.
!	!	!	!	!LO:LB:g=original	!	!	!
=36-	=36-	=36-	=36-	=36-	=36-	=36-	=36-
4G\	.	16G\LL	-gran-	16b-\LL	.	4r	.
.	.	16A\	.	16cc\	.	.	.
.	.	16B\	.	16dd\	.	.	.
.	.	16A\JJ	.	16cc\JJ	.	.	.
4GG/	.	16G\LL	.	16b-\LL	.	8b-\	et
.	.	16F\	.	16a\	.	.	.
.	.	16E-X\	.	16g\	.	8b-\	fra-
!	!	!LO:SIC:v:t=custos c	!	!	!	!	!
.	.	16D\JJ	.	16f\JJ	.	.	.
!	!	!LO:LB:g=original	!	!	!	!	!
!LO:TX:a:t=P:problem:♭ above	!	!	!	!	!	!	!
2C-/	.	8C/	.	8.g/	.	16cc\LL	-gran-
.	.	.	.	.	.	16dd\	.
.	.	16C/	-ti-	.	.	16ee-X\	.
.	.	16C/	-a	16g/	-ti-	16dd\JJ	.
!	!	!	!	!LO:TX:t=P:problem:kreska pseudotaktowa	!	!	!
.	.	8C/	un-	4e-X/	-a	16cc\LL	.
.	.	.	.	.	.	16b-\	.
!	!	!LO:TX:t=P:problem:kreska pseudotaktowa	!	!	!	!	!
.	.	8C/	-guen-	.	.	16a\	.
!	!	!	!	!	!	!LO:TX:t=P:problem:kreska pseudotaktowa	!
.	.	.	.	.	.	16g\JJ	.
!LO:TX:a:t=P:problem:♭ above	!	!	!	!	!	!	!
2D-/	.	16D\LL	-to-	4r	.	8f/	.
.	.	16E-\	.	.	.	.	.
.	.	16F\	.	.	.	16f/	-ti-
.	.	16E-\JJ	.	.	.	16f/	-a
.	.	16D/LL	.	8f/	un-	8a\	un-
.	.	16C/	.	.	.	.	.
.	.	16BB/	.	8f/	-guen-	8a\	-guen-
.	.	16AA/JJ	.	.	.	.	.
!LO:TX:t=P:problem:kreska pseudotaktowa	!	!	!	!	!	!	!
2GG/	.	4GG/	.	16g\LL	-to-	16b-\LL	-to-
.	.	.	.	16a\	.	16cc\	.
.	.	.	.	16b-\	.	16dd\	.
.	.	.	.	16a\JJ	.	16cc\JJ	.
.	.	8GG/	-rum	(16g/LL	-rum	(16b-\LL	-zum
.	.	.	.	16f#X/JJ)	.	16a\JJ)	.
!	!	!LO:TX:t=P:problem:kreska pseudotaktowa	!	!	!	!	!
.	.	8GG/	tu-	(16g/LL	tu-	(16b-\LL	tu-
!	!	!	!	!	!	!LO:TX:t=P:problem:kreska pseudotaktowa	!
!	!	!	!	!LO:TX:t=P:problem:kreska pseudotaktowa	!	!LO:SIC:v:t=custos a	!
.	.	.	.	16e-/JJ)	.	16g\JJ)	.
!	!	!	!	!	!	!LO:LB:g=original	!
=37-	=37-	=37-	=37-	=37-	=37-	=37-	=37-
!LO:TX:a:t=P:problem:# above	!	!	!	!	!	!	!
4D#X/	.	8D/	-o-	8f#X/	-o-	8a\	-o-
.	.	8D/	-rum	8f#/	-rum	8a\	-rum
4BB/	.	8BB/	ſup-	8d/	ſup-	8dd\	ſup-
.	.	8BB/	-ra	8d/	-ra	8dd\	-ra
2Cny/	.	4C/	cun-	8eny/L	cun-	4cc\	cun-
!	!	!	!	!LO:TX:t=P:problem:# below	!	!	!
.	.	.	.	8f#X/J	.	.	.
.	.	8C/	-cta	8g/	-cta	8cc\	-cta
!	!	!	!	!LO:TX:t=P:problem:kreska pseudotaktowa	!	!	!
!	!	!	!	!LO:SIC:v:t=custos f	!	!LO:TX:t=P:problem:kreska pseudotaktowa	!
.	.	8C/	a-	8g/	a-	8b-\	a-
!	!	!	!	!LO:LB:g=original	!	!	!
!LO:TX:t=P:problem:kreska pseudotaktowa	!	!	!	!LO:TX:t=P:problem:# below	!	!	!
!LO:TX:a:t=P:problem:# above	!	!	!	!	!	!	!
1D#X	4	2.D/	-ro-	(8f#X/L	-ro-	2.a\	-ro-
.	.	.	.	8d/J	.	.	.
.	.	.	.	2g/)	.	.	.
!	!	!LO:TX:t=P:problem:kreska pseudotaktowa	!	!	!	!	!
!	!	!LO:SIC:v:t=custos G	!	!LO:TX:t=P:problem:kreska pseudotaktowa	!	!	!
.	.	4D/	-ma-	4f#X/	-ma-	4a\	-ma-
!	!	!LO:LB:g=original	!	!	!	!	!
=38-	=38-	=38-	=38-	=38-	=38-	=38-	=38-
2GG/	.	4GG/	-ta	4g/	-ta	4b-\	-ta,
.	.	4r	.	4.g/	fa-	(4.b-\	fa-
2G\	.	2r	.	.	.	.	.
.	.	.	.	8f#X/	-vum	8a\	.
.	.	.	.	8g/L	stil-	8b-\)	.
!LO:TX:a:t=P:problem:# above	!	!	!	!LO:TX:t=P:problem:kreska pseudotaktowa	!	!LO:TX:t=P:problem:kreska pseudotaktowa	!
.	.	.	.	8e/J	.	8g/	-vum
4D#X/	.	1r	.	4f#X/	-lant	8a\	stil-
.	.	.	.	.	.	8a\	-lant
2BB/	.	.	.	8dd\	fa-	8ff\L	fa-
.	.	.	.	8cc\	-vu	8eeny\J	.
.	.	.	.	(8b-\L	stil-	8dd\L	.
.	.	.	.	8a\J)	.	8cc\J	.
4BB/	6 5	.	.	(8b-\L	-lant	(8dd\L	-vum
!	!	!	!	!LO:TX:t=P:problem:kreska pseudotaktowa	!	!LO:TX:t=P:problem:kreska pseudotaktowa	!
.	.	.	.	8g\J)	.	8b-\J)	.
=39-	=39-	=39-	=39-	=39-	=39-	=39-	=39-
!LO:TX:t=P:problem:kreska pseudotaktowa	!	!	!	!	!	!	!
!LO:SIC:v:t=custos c	!	!	!	!	!	!	!
1F	.	0r	.	4a\	stil-	4cc\	stil-
!LO:LB:g=original	!	!	!	!	!	!LO:SIC:v:t=custos cc	!
.	.	.	.	4a\	-lant	4cc\	-lant
!	!	!	!	!	!	!LO:LB:g=original	!
.	.	.	.	8r	.	8r	.
.	.	.	.	8a\	la-	8cc\	lab-
.	.	.	.	8a\	-bi-	8cc\	-ia
!	!	!	!	!LO:TX:t=P:problem:kreska pseudotaktowa	!	!	!
!	!	!	!	!LO:SIC:v:t=custos cc	!	!	!
!	!	!	!	!LO:N:acc=#	!	!LO:TX:t=P:problem:kreska pseudotaktowa	!
.	.	.	.	8bn\	-a	8dd\	tu-
!	!	!	!	!LO:PB:g=original	!	!	!
!LO:TX:a:t=P:problem:♭ above	!	!	!	!	!	!	!
4.C-/	.	.	.	4cc\	tu-	4ee-X\	-a
.	.	.	.	8cc\	-a	8ee-\	o
8F\	6 5	.	.	8cc\	o	8dd\	.
4G\	5 4	.	.	(4.cc\	ſpon-	2dd\	-ſpon-
!LO:TX:t=P:problem:kreska pseudotaktowa	!	!	!	!	!	!	!
!LO:TX:a:t=P:problem:# above	!	!	!	!	!	!	!
4GG#X/	.	.	.	.	.	.	.
!	!	!	!	!LO:TX:t=P:problem:kreska pseudotaktowa	!	!	!
!	!	!	!	!LO:N:acc=#	!	!	!
.	.	.	.	8bn\)	.	.	.
=40-	=40-	=40-	=40-	=40-	=40-	=40-	=40-
2Cny/	.	0r	.	4cc\	-sa	4cc\	-sa
.	.	.	.	8g/	mel	4r	.
.	.	.	.	8cc\	et	.	.
!	!	!	!	!	!	!LO:TX:t=P:problem:kreska pseudotaktowa	!
4.Dny/	6	.	.	8b\	la	2r	.
.	.	.	.	8a\	ſub	.	.
.	.	.	.	8b\	lin-	.	.
!	!	!	!	!LO:TX:t=P:problem:kreska pseudotaktowa	!	!	!
8Eny\	.	.	.	8g/	-gua	.	.
4F\	.	.	.	4a\	tu-	4r	.
4FF/	.	.	.	8a\	-a	8cc\	me-
.	.	.	.	8a\	sub	8ff\	-lo
!LO:TX:a:t=P:problem:♭ above	!	!	!	!	!	!	!
4.GG-/	6	.	.	4.b\	lin-	8ee-X\	lao
.	.	.	.	.	.	8dd\	ſub
.	.	.	.	.	.	8ee-X\	lin-
!LO:TX:t=P:problem:kreska pseudotaktowa	!	!	!	!LO:TX:t=P:problem:kreska pseudotaktowa	!	!LO:TX:t=P:problem:kreska pseudotaktowa	!
8AA/	.	.	.	8cc\	-gua	8cc\	-gua
=41-	=41-	=41-	=41-	=41-	=41-	=41-	=41-
2BB/	.	0r	.	8fny/	tu-	8dd\	tu-
.	.	.	.	8f/	-a	8dd\	-a
!	!	!	!	!LO:SIC:v:t=custos b	!	!	!
.	.	.	.	4b\	et	4dd\	et
!	!	!	!	!LO:LB:g=original	!	!	!
2F\	4 3	.	.	4b-\	o-	4cc\	o-
!	!	!	!	!	!	!LO:TX:t=P:problem:kreska pseudotaktowa	!
!	!	!	!	!LO:TX:t=P:problem:kreska pseudotaktowa	!	!LO:SIC:v:t=custos b	!
.	.	.	.	4a\	-dor	4cc\	-dor
!	!	!	!	!	!	!LO:PB:g=original	!
2G\	9 8	.	.	4a\	ves-	4b-\	ves-
.	.	.	.	8g/	-ti-	8b-\	-ti-
.	.	.	.	8g/	-men-	8b-\	-men-
4.D/	4 3	.	.	4g/	-to-	4a\	-to-
.	.	.	.	8f/	-rum	8a\	-rum
!LO:TX:t=P:problem:kreska pseudotaktowa	!	!	!	!LO:TX:t=P:problem:kreska pseudotaktowa	!	!LO:TX:t=P:problem:kreska pseudotaktowa	!
8C/	.	.	.	8f/	tu-	8a\	tu-
=42-	=42-	=42-	=42-	=42-	=42-	=42-	=42-
!LO:N:acc=#	!	!	!	!	!	!	!
4BBn/	6 5	0r	.	4f/	-o-	4.g/	-o-
4C#X/	.	.	.	4e/	-rum,	.	.
.	.	.	.	.	.	8a\	-rum
8D/L	9 8	.	.	4e/	est	4f/	est
8C#/	.	.	.	.	.	.	.
8BB/	.	.	.	8d/	ſi-	8f/	si-
!	!	!	!	!LO:TX:t=P:problem:kreska pseudotaktowa	!	!LO:TX:t=P:problem:kreska pseudotaktowa	!
8AA/J	.	.	.	8c/	-cut	8f/	-cut
!LO:TX:a:t=P:problem:# above	!	!	!	!LO:N:acc=#	!	!	!
2GG#X/	.	.	.	8Bn/L	o-	4.g/	o-
.	.	.	.	8c/J	.	.	.
.	.	.	.	4d/	-dor	.	.
.	.	.	.	.	.	8f/	-dor
!LO:TX:t=P:problem:kreska pseudotaktowa	!	!	!	!	!	!	!
!LO:SIC:v:t=custos d	!	!	!	!	!	!	!
!LO:TX:a:t=P:problem:# above	!	!	!	!	!	!	!
2AA#X/	5 4	.	.	4.d/	li-	4.e/	li-
!LO:LB:g=original	!	!	!	!LO:TX:t=P:problem:kreska pseudotaktowa	!	!LO:TX:t=P:problem:kreska pseudotaktowa	!
.	.	.	.	8c#X/	-ba-	8e/	-ba-
=43-	=43-	=43-	=43-	=43-	=43-	=43-	=43-
2D/	.	0r	.	4d/	-ni	4f/	-na
.	.	.	.	4dd\	et	4ff\	et
4.E-X\	7 6	.	.	4dd\	o-	4ee-X\	o-
!	!	!	!	!LO:TX:t=P:problem:kreska pseudotaktowa	!	!	!
!	!	!	!	!LO:SIC:v:t=custos cc	!	!LO:TX:t=P:problem:kreska pseudotaktowa	!
.	.	.	.	4cc\	-dor	4ee-\	-dor
!	!	!	!	!LO:LB:g=original	!	!	!
8F\	.	.	.	.	.	.	.
4.G\	4 3	.	.	4cc\	ves-	4dd\	ves-
.	.	.	.	8b-\	-ti-	8dd\	-ti-
!	!	!	!	!	!	!LO:SIC:v:t=custos cc	!
8F\	.	.	.	8b-\	-men-	8dd\	-men-
!LO:TX:a:t=P:problem:♭ above	!	!	!	!	!	!LO:LB:g=original	!
4E-\	6 5	.	.	4b-\	-to-	4cc\	-to-
!LO:TX:t=P:problem:kreska pseudotaktowa	!	!	!	!	!	!	!
4F#X\	.	.	.	8a\	-rum	8cc\	-rum
!	!	!	!	!LO:TX:t=P:problem:kreska pseudotaktowa	!	!LO:TX:t=P:problem:kreska pseudotaktowa	!
.	.	.	.	8a\	tu-	8dd\	tu-
=44-	=44-	=44-	=44-	=44-	=44-	=44-	=44-
8G\L	9	0r	.	4a\	-o-	4b-\	-o-
8Fny\	8	.	.	.	.	.	.
8E-X\	.	.	.	8g/	-rum	8b-\	-rum
8D\J	.	.	.	8f/	est	8b-\	est
!LO:TX:a:t=P:problem:# above	!	!	!	!	!	!	!
2C#X/	.	.	.	8e/	ſi-	8cc\	ſi-
.	.	.	.	8f#X/	-cut	8dd\	-cut
.	.	.	.	8g/	o-	8b-\	o-
!	!	!	!	!LO:TX:t=P:problem:kreska pseudotaktowa	!	!LO:TX:t=P:problem:kreska pseudotaktowa	!
.	.	.	.	8g/	-dor	8a\	-dor
!LO:TX:t=P:problem:kreska pseudotaktowa	!	!	!	!	!	!	!
1D	5 3	.	.	8f#X/L	li-	4a\	li-
.	6 4	.	.	8d/J	.	.	.
.	5 3	.	.	2g/	.	8b-\L	.
.	.	.	.	.	.	16a\L	.
.	.	.	.	.	.	16g\JJ	.
.	.	.	.	.	.	4.a\	.
!	!	!	!	!LO:TX:t=P:problem:kreska pseudotaktowa	!	!	!
!	!	!	!	!LO:TX:t=P:problem:# below	!	!	!
.	.	.	.	4f#X/	-ba-	.	.
!	!	!	!	!	!	!LO:TX:t=P:problem:kreska pseudotaktowa	!
.	.	.	.	.	.	8a\	-ba-
=45-	=45-	=45-	=45-	=45-	=45-	=45-	=45-
!	!	!LO:TX:t=P:problem:kreska pseudotaktowa	!	!	!	!	!
2.GGny/	.	1r	.	4g/	-ni	4b-\	-ni
.	.	.	.	4r	.	8.dd\	vul-
.	.	.	.	.	.	16dd\	-ne-
.	.	.	.	2r	.	4b-\	-ras-
4AAny/	6/	.	.	.	.	8.f#X/	-ti
!	!	!	!	!	!	!LO:TX:t=P:problem:kreska pseudotaktowa	!
!	!	!	!	!	!	!LO:SIC:v:t=custos g	!
.	.	.	.	.	.	16f#/	cor
!	!	!	!	!	!	!LO:LB:g=original	!
2GG/	.	4r	.	2r	.	8g\L	me-
.	.	.	.	.	.	8a\J	.
.	.	8.G\	vul-	.	.	8b-\	-um
.	.	.	.	.	.	8b-\	cor
.	.	16G\	-ne-	.	.	.	.
!LO:TX:a:t=P:problem:♭ above	!	!	!	!	!	!	!
4C-/	.	4E-X\	-ra-	4r	.	(4cc\	me-
!LO:TX:t=P:problem:kreska pseudotaktowa	!	!	!	!	!	!	!
!LO:N:acc=#	!	!LO:N:acc=#	!	!	!	!	!
4BBn/	6	8.BBn/	-sti	8.g/	vul-	8dd\L	.
!	!	!	!	!	!	!LO:TX:t=P:problem:kreska pseudotaktowa	!
.	.	.	.	.	.	8cc\J)	.
!	!	!	!	!LO:TX:t=P:problem:kreska pseudotaktowa	!	!	!
!	!	!LO:TX:t=P:problem:kreska pseudotaktowa	!	!LO:SIC:v:t=custos e	!	!	!
.	.	16BB/	cor	16g/	-ne-	.	.
!	!	!	!	!LO:LB:g=original	!	!	!
=46-	=46-	=46-	=46-	=46-	=46-	=46-	=46-
!LO:TX:a:t=P:problem:♭ above	!	!	!	!	!	!	!
4C-/	.	4C/	me-	4e-X/	-ra-	4cc\	-um
!	!	!	!	!LO:N:acc=#	!	!	!
4D/	6\	8.D/	-um	8.Bn/	-sti	8ff\	vul-
.	.	.	.	.	.	8ff\	-ne-
.	.	16D/	cor	16B/	cor-	.	.
2Cny/	.	4C/	me-	8cny/	-me-	8ee-X\	-ra-
.	.	.	.	8c/	-um	8ee-\	-sti
!	!	!LO:TX:t=P:problem:kreska pseudotaktowa	!	!	!	!	!
.	.	4C/	-um	8cc\	ſor-	8ee-\	ſor-
!	!	!	!	!LO:TX:t=P:problem:kreska pseudotaktowa	!	!LO:TX:t=P:problem:kreska pseudotaktowa	!
.	.	.	.	8b-\	-or	8dd\	-or
4F\	.	4r	.	8a\	me-	8cc\	me-
.	.	.	.	8a\	-a	8cc\	-a
4D\	.	8D/	ſor-	8fny/	ſor-	8ff\	ſor-
.	.	8D/	-or	8f/	-or	8ff\	-or
!LO:TX:t=P:problem:kreska pseudotaktowa	!	!	!	!	!	!	!
!LO:SIC:v:t=custos f	!	!	!	!	!	!	!
2E-X\	.	4.E-X\	me-	8g\L	me-	4.ee-X\	me-
.	.	.	.	8a\J	.	.	.
!LO:LB:g=original	!	!	!	!LO:TX:t=P:problem:kreska pseudotaktowa	!	!	!
.	.	.	.	4b-\	-a	.	.
!	!	!LO:TX:t=P:problem:kreska pseudotaktowa	!	!	!	!	!
!	!	!LO:SIC:v:t=custos f	!	!	!	!LO:TX:t=P:problem:kreska pseudotaktowa	!
.	.	8E-\	-a	.	.	8dd\	-a
!	!	!LO:PB:g=original	!	!	!	!	!
=47-	=47-	=47-	=47-	=47-	=47-	=47-	=47-
2F\	.	2F\	ſpon-	(4.b-\	ſpon-	2cc\	ſpon-
.	.	.	.	8a\)	.	.	.
4BB/	.	4BB/	-sa,	4b-\	-sa	4dd\	-sa
4B-\	.	8B\	vul-	8dd\	vul-	4r	.
!	!	!	!	!	!	!LO:LB:g=original	!
!	!	!LO:TX:t=P:problem:kreska pseudotaktowa	!	!LO:TX:t=P:problem:kreska pseudotaktowa	!	!	!
.	.	8B\	-ne-	8dd\	-ne-	.	.
4G\	.	4G\	-ra-	4b-\	-ra-	2r	.
!LO:TX:a:t=P:problem:# above	!	!	!	!	!	!	!
4D#X\	.	8D/	-sti	8.f#X/	-sti	.	.
.	.	8D/	cor	.	.	.	.
!	!	!	!	!LO:SIC:v:t=custos g	!	!	!
.	.	.	.	16f#/	cor	.	.
!	!	!	!	!LO:LB:g=original	!	!	!
!LO:TX:t=P:problem:kreska pseudotaktowa	!	!	!	!	!	!	!
2E-X\	.	8E-X\	me-	4g/	me-	4r	.
.	.	8E-\	-um	.	.	.	.
.	.	8.E-\	vul-	2g/	-um	8.gg\	vul-
!	!	!LO:TX:t=P:problem:kreska pseudotaktowa	!	!	!	!	!
.	.	16E-\	-ne-	.	.	16gg\	-ne-
=48-	=48-	=48-	=48-	=48-	=48-	=48-	=48-
!LO:TX:a:t=P:problem:♭ above	!	!	!	!	!	!	!
4C-/	.	4C/	-ra-	.	.	4ee-X\	-ra-
!	!	!	!	!	!	!LO:N:acc=#	!
4Dny/	6/	8.D/	-sti	8fny/	vul-	8.bn\	-sti
.	.	.	.	8f/	-ne-	.	.
.	.	16D/	cor	.	.	16b\	cor
2Cny/	.	8C/	me-	8e-X/	-ra-	8cc\	me-
.	.	8C/	-um	8c/	-sti	8cc\	-um
!	!	!	!	!	!	!LO:TX:t=P:problem:kreska pseudotaktowa	!
.	.	8C/	ſor-	8cc\	ſor-	4r	.
!	!	!LO:TX:t=P:problem:kreska pseudotaktowa	!	!	!	!	!
!	!	!LO:SIC:v:t=custos f	!	!LO:TX:t=P:problem:kreska pseudotaktowa	!	!	!
.	.	8C/	-or	8b-\	-or	.	.
!	!	!LO:LB:g=original	!	!	!	!	!
2F\	.	8F\	me-	8a\	me-	4r	.
.	.	8F\	-a	8a\	-a	.	.
.	.	8FF/	ſpon-	4r	.	8ff\	ſor-
.	.	8FF/	-sa	.	.	8ee-X\	-or
!LO:TX:t=P:problem:kreska pseudotaktowa	!	!	!	!	!	!	!
2BB/	.	8BB/	me-	4r	.	8dd\	me-
.	.	8BB/	-a	.	.	8dd\	-a
.	.	8BB/	ſor-	8d/	ſor-	8dd\	ſor-
!	!	!LO:TX:t=P:problem:kreska pseudotaktowa	!	!LO:TX:t=P:problem:kreska pseudotaktowa	!	!LO:TX:t=P:problem:kreska pseudotaktowa	!
.	.	8BB/	-or	8d/	-or	8dd\	-or
=49-	=49-	=49-	=49-	=49-	=49-	=49-	=49-
2C/	.	4.C/	me-	8eny/L	me-	4.cc\	me-
!	!	!	!	!LO:TX:t=P:problem:# below	!	!	!
.	.	.	.	8f#X/J	.	.	.
.	.	.	.	4g/	-a	.	.
.	.	8C/	-a	.	.	8b\	-a
!	!	!	!	!	!	!LO:TX:t=P:problem:kreska pseudotaktowa	!
!LO:TX:a:t=P:problem:# above	!	!LO:TX:t=P:problem:kreska pseudotaktowa	!	!	!	!LO:SIC:v:t=custos b	!
2D#X/	4	2D/	ſpon-	(4.g/	ſpon-	2a\	ſpon-
!	!	!	!	!	!	!LO:LB:g=original	!
!	!	!	!	!LO:TX:t=P:problem:kreska pseudotaktowa	!	!	!
!	!	!	!	!LO:TX:t=P:problem:# below	!	!	!
.	.	.	.	8f#X/)	.	.	.
2GG/	.	4GG/	-sa	4g/	-sa	4b\	-sa
.	.	4r	.	8g/	ſor-	8b\	ſor-
.	.	.	.	8f#/	-or	8a\	-or
4.C/	.	4r	.	8e/	me-	8g/	me-
.	.	.	.	8e/	-a	8g/	-a
!	!	!	!	!LO:TX:t=P:problem:kreska pseudotaktowa	!	!	!
!	!	!	!	!LO:SIC:v:t=custos f	!	!LO:TX:t=P:problem:kreska pseudotaktowa	!
.	.	8C/	ſor-	4r	.	4r	.
!	!	!	!	!LO:LB:g=original	!	!	!
!LO:TX:t=P:problem:kreska pseudotaktowa	!	!LO:TX:t=P:problem:kreska pseudotaktowa	!	!	!	!	!
8BB/	.	8BB/	-or	.	.	.	.
=50-	=50-	=50-	=50-	=50-	=50-	=50-	=50-
4AA/	6	8AA/	me-	8fny/	ſor-	8a\	ſor-
.	.	8AA/	-a	8e/	-or	8g/	-or
4BB/	.	8BB/	ſor-	8d/	me-	8fny/	me-
!	!	!LO:SIC:v:t=custos G	!	!	!	!	!
.	.	8AA/	-or	8d/	-a	8f/	-a
!	!	!LO:LB:g=original	!	!	!	!	!
4GG/	.	8GG/	me-	8e/	ſpon-	8.g/	ſpon-
.	.	8GG/	-a	8d/	-sa	.	.
.	.	.	.	.	.	16f/	-sa
!	!	!LO:TX:t=P:problem:kreska pseudotaktowa	!	!	!	!LO:TX:t=P:problem:kreska pseudotaktowa	!
4AA/	.	4AA/	ſpon-	(8.d/	me-	4e/	me-
!	!	!	!	!LO:TX:t=P:problem:kreska pseudotaktowa	!	!	!
.	.	.	.	16c#X/)	.	.	.
!LO:TX:a:t=P:problem:♭ above	!	!	!	!	!	!	!
2D-/	.	4D/	-sa,	4d/	-a	4f/	-a
.	.	4r	.	8dd\	ſor-	8ff\	ſor-
.	.	.	.	8cc\	-or	8ee-X\	-or
4G\	.	8G\	ſor-	8b-\	me-	8dd\	me-
.	.	8F\	-or	8b-\	-a	8dd\	-a
!LO:TX:t=P:problem:kreska pseudotaktowa	!	!	!	!	!	!	!
!LO:SIC:v:t=custos f	!	!	!	!	!	!	!
4E-X\	.	8E-X\	me-	8cc\	ſpon-	8ee-X\	ſpon-
!LO:LB:g=original	!	!	!	!	!	!LO:TX:t=P:problem:kreska pseudotaktowa	!
!	!	!LO:TX:t=P:problem:kreska pseudotaktowa	!	!LO:TX:t=P:problem:kreska pseudotaktowa	!	!LO:SIC:v:t=custos cc	!
.	.	8E-\	-a	8b-\	-sa	8dd\	-sa
!	!	!	!	!	!	!LO:LB:g=original	!
=51-	=51-	=51-	=51-	=51-	=51-	=51-	=51-
4F\	.	8F\	ſpon-	8a\	me-	8cc\	me-
.	.	8E-X\	-sa	8a\	-a	8cc\	-a
*	*	*	*	*	*ij	*	*
4Dny\	.	8D/	me-	8b-\	ſpon-	8dd\	ſor-
.	.	8D/	-a	8a\	-sa	8cc\	-or
4E-X\	.	8E-X\	ſor-	8g/	me-	8b\	me-
.	.	8D/	-or	8g/	-a	8b\	-a
*	*	*	*	*	*Xij	*	*
4C/	.	8C/	me-	8a\	ſpon-	8cc\	ſpon-
!	!	!	!	!LO:TX:t=P:problem:kreska pseudotaktowa	!	!	!
!	!	!LO:TX:t=P:problem:kreska pseudotaktowa	!	!LO:SIC:v:t=custos g	!	!LO:TX:t=P:problem:kreska pseudotaktowa	!
.	.	8C/	-a	8g/	-sa	8b\	-sa
!	!	!	!	!LO:LB:g=original	!	!	!
2D/	.	8D/L	ſpon-	(4.g/	me-	2a\	me-
.	.	8C/	.	.	.	.	.
.	.	8D/	.	.	.	.	.
.	.	8DD/J	.	8f#X/)	.	.	.
!LO:TX:t=P:problem:kreska pseudotaktowa	!	!	!	!	!	!	!
2GG/	.	4GG/	-sa	4g/	-a	4g/	-a
.	.	8G\	ſor-	8g/	ſor-	8b\	ſor-
!	!	!LO:TX:t=P:problem:kreska pseudotaktowa	!	!	!	!	!
!	!	!LO:SIC:v:t=custos a	!	!LO:TX:t=P:problem:kreska pseudotaktowa	!	!LO:TX:t=P:problem:kreska pseudotaktowa	!
.	.	8G\	-or	8g/	-or	8b\	-or
!	!	!LO:LB:g=original	!	!	!	!	!
=52-	=52-	=52-	=52-	=52-	=52-	=52-	=52-
!LO:TX:a:t=P:problem:# above	!	!	!	!	!	!	!
1AA#X	7 3	4.A\	me-	4g/	me-	4c#X/	me-
.	6 4	.	.	4fny/	-a	4d/	-a
.	5 3	8A\	-a	.	.	.	.
.	.	2AA/	ſpon-	2e/	ſpon-	(4.d/	ſpon-
!	!	!	!	!	!	!LO:TX:t=P:problem:kreska pseudotaktowa	!
.	.	.	.	.	.	8c#X/)	.
2D\	.	4D/	-sa,	4f/	-sa	4d/	-sa
.	.	4r	.	4r	.	8.dd\	vul-
!	!	!	!	!	!	!LO:SIC:v:t=custos b	!
.	.	.	.	.	.	16dd\	-ne-
!	!	!	!	!	!	!LO:LB:g=original	!
!	!	!LO:TX:t=P:problem:kreska pseudotaktowa	!	!LO:TX:t=P:problem:kreska pseudotaktowa	!	!	!
4G\	.	2r	.	2r	.	4b-\	-ra-
!LO:TX:t=P:problem:kreska pseudotaktowa	!	!	!	!	!	!	!
4A\	6/	.	.	.	.	8.f#X/	-sti
!	!	!	!	!	!	!LO:TX:t=P:problem:kreska pseudotaktowa	!
.	.	.	.	.	.	16f#/	cor
=53-	=53-	=53-	=53-	=53-	=53-	=53-	=53-
2G\	.	4r	.	2r	.	8g\L	me-
.	.	.	.	.	.	8a\J	.
.	.	8.G\	vul-	.	.	8b-\	-um
.	.	.	.	.	.	8b-\	cor
.	.	16G\	-ne-	.	.	.	.
4E-X\	.	4E-X\	-ra-	4r	.	(4cc\	me-
!LO:N:acc=#	!	!LO:N:acc=#	!	!	!	!	!
4BBn/	6	8.BBn/	-sti	8.g/	vul-	8dd\L	.
!	!	!	!	!	!	!LO:TX:t=P:problem:kreska pseudotaktowa	!
.	.	.	.	.	.	8cc\J)	.
!	!	!LO:TX:t=P:problem:kreska pseudotaktowa	!	!LO:TX:t=P:problem:kreska pseudotaktowa	!	!	!
.	.	16BB/	cor	16g/	-ne-	.	.
4C/	.	4C/	me-	4e-X/	-ra-	4cc\	-um
!	!	!	!	!LO:N:acc=#	!	!	!
4D/	6\	8D/	-um	8.Bn/	-sti	8.ff\	ſor-
.	.	8D/	cor-	.	.	.	.
.	.	.	.	16B/	cor-	16ff\	-or
!LO:TX:t=P:problem:kreska pseudotaktowa	!	!	!	!	!	!	!
2C/	.	4C/	-me-	8cny/	-me-	8eeny\	me-
.	.	.	.	8c/	-um	8ee\	-a
!	!	!LO:TX:t=P:problem:kreska pseudotaktowa	!	!	!	!	!
.	.	4C/	-um	8cc\	ſor-	8ee\	ſor-
!	!	!	!	!LO:TX:t=P:problem:kreska pseudotaktowa	!	!	!
!	!	!	!	!LO:SIC:v:t=custos a	!	!LO:TX:t=P:problem:kreska pseudotaktowa	!
.	.	.	.	8b-\	-or	8dd\	-or
!	!	!	!	!LO:LB:g=original	!	!	!
=54-	=54-	=54-	=54-	=54-	=54-	=54-	=54-
2C/	9 6	4.C/	ſor-	4a\	me-	4cc\	me-
.	7 3	.	.	4g/	-a	4b-\	-a
.	.	8C/	-or	.	.	.	.
2D\	5 3	4.D/	me-	4f#X/	ſpon-	4a\	ſpon-
!	!	!	!	!LO:TX:t=P:problem:kreska pseudotaktowa	!	!	!
.	4	.	.	2g/	.	8b-\L	.
!	!	!LO:TX:t=P:problem:kreska pseudotaktowa	!	!	!	!	!
!	!	!LO:SIC:v:t=custos D	!	!	!	!	!
.	6 4	8D/	-a	.	.	16a\L	.
!	!	!LO:LB:g=original	!	!	!	!LO:TX:t=P:problem:kreska pseudotaktowa	!
!	!	!	!	!	!	!LO:SIC:v:t=custos a	!
.	.	.	.	.	.	16g\JJ	.
!	!	!	!	!	!	!LO:LB:g=original	!
2D\	5 3	2DD/	ſpon-	.	.	2a\	.
.	.	.	.	4f#X/	.	.	.
!LO:TX:t=P:problem:kreska pseudotaktowa	!	!	!	!	!	!	!
!LO:SIC:v:t=custos e	!	!	!	!	!	!LO:N:acc=#	!
2GG/	.	4GG/	-sa	4g\	-sa	4bn\	-sa
.	.	8.G\	ſor-	8d/	ſor-	8b\	ſor-
!LO:LB:g=original	!	!	!	!LO:TX:t=P:problem:kreska pseudotaktowa	!	!LO:TX:t=P:problem:kreska pseudotaktowa	!
.	.	.	.	8d/	-or	8b\	-or
!	!	!LO:TX:t=P:problem:kreska pseudotaktowa	!	!	!	!	!
.	.	16F\	-or	.	.	.	.
=55-	=55-	=55-	=55-	=55-	=55-	=55-	=55-
2E-X\	.	2E-X\	me-	2.g/	me-	2cc\	me-
!LO:N:acc=#	!	!LO:N:acc=#	!	!	!	!	!
2BBn/	.	2BBn/	-a	.	.	2dd\	-a
.	.	.	.	4fny/	-a	.	.
1C	.	1C	ſpon-	1e-X	ſpon-	1cc	ſpon-
=56-	=56-	=56-	=56-	=56-	=56-	=56-	=56-
!LO:TX:t=P:problem:kreska pseudotaktowa	!	!LO:TX:t=P:problem:kreska pseudotaktowa	!	!	!	!LO:N:acc=#	!
0GG	.	0GG	-sa	0d	-sa	0bn	-sa
=-	=-	=-	=-	=-	=-	=-	=-
*-	*-	*-	*-	*-	*-	*-	*-
!!!system-decoration: [(s1,s2,s3)]s4
!!!ENC: Berenika Jozajtis
!!!END: 2022-02-05
!!!ENC: Julita Ruszuk
!!!END: 2022-02-19
!!!YEC: Copyright 2022 Narodowy Instytut Fryderyka Chopina (https://polishscores.org)
!!!YEM: License CC-BY-4.0 (https://creativecommons.org/licenses/by/4.0)
